X:1
T:The Rakes of Mallow
R:Slow Reel
M:C
K:G
(3DEF| "G"G2B2 G2B2| G2B2 cBAG| "D"F2A2 F2A2| F2A2 dcBA|
"G"G2B2 G2B2| G2B2 d3B| "C"cBAG "D7"FGAc| "G"B2G2 G2 :|
|: (3def| "G"g2fe d2c2| B2c2 d3B| g2fe d2c2| B2c2 "D"A3d|
"G"g2fe d2c2| B2c2 d3B| "C"cBAG "D7"FGAc| "G"B2G2 G2 :|
